X: 40
T: Keep the Country Bonnie Lassie
T: Strathspey, A
L: 1/16
M: C
K: A
A1A1A2 c3A1 B3c1 d1f3| e1d3 c3B1 A4 (3A2B2c2| d3B1 c3A1 B1c3 d3f1| e1c3 a3e1 =g4f1a3| 
A1A1A2 c3A1 B3c1 d1f3| e1d3 c3B1 A4 (3A2B2c2| d3B1 c3A1 B1c3 d3e1| f3g1 a3g1 f3e1 f1a3|| 
|: e1c3 a3c1 B3c1 d1f3| e1c3 a3c1 e3c1 a3c1| f1d3 e1c3 B3c1 d3e1| f3g1 a3g1 f3e1 f1a3:| 
D: Ray Ellis, More Like Me!, REC001, 1999
